svg/building/shop_line.svg

<svg xmlns="http://www.w3.org/2000/svg" width="24" height="24" viewBox="0 0 24 24"><g fill="none" fill-rule="evenodd"><path d="M24,0 L24,24 L0,24 L0,0 L24,0 Z M12.5935,23.2578 L12.5819,23.2595 L12.5109,23.295 L12.4919,23.2987 L12.4767,23.295 L12.4057,23.2595 C12.3958,23.2564 12.387,23.259 12.3821,23.2649 L12.378,23.2758 L12.3609,23.7031 L12.3659,23.7235 L12.3769,23.7357 L12.4805,23.8097 L12.4953,23.8136 L12.5071,23.8097 L12.6107,23.7357 L12.6233,23.7197 L12.6267,23.7031 L12.6096,23.2758 C12.6076,23.2657 12.601,23.2593 12.5935,23.2578 Z M12.8584,23.1453 L12.8445,23.1473 L12.6598,23.2397 L12.6499,23.2499 L12.6472,23.2611 L12.6651,23.6906 L12.6699,23.7034 L12.6784,23.7105 L12.8793,23.8032 C12.8914,23.8069 12.9022,23.803 12.9078,23.7952 L12.9118,23.7812 L12.8777,23.1665 C12.8753,23.1546 12.8674,23.147 12.8584,23.1453 Z M12.143,23.1473 C12.1332,23.1424 12.1222,23.1453 12.1156,23.1526 L12.1099,23.1665 L12.0758,23.7812 C12.0751,23.7927 12.0828,23.8019 12.0926,23.8046 L12.1083,23.8032 L12.3092,23.7105 L12.3186,23.7024 L12.3225,23.6906 L12.3404,23.2611 L12.3372,23.2485 L12.3278,23.2397 L12.143,23.1473 Z"/><path fill="#09244B" d="M17.5195,4 C18.06625,4 18.586432,4.2237058 18.9616564,4.61430643 L19.0812,4.75061 L22.1311,8.56296 C22.8887393,9.51002357 22.2656489,10.8966816 21.0923846,10.9945206 L20.9598,11 L20.0001,11 L20.0001,19 C20.0001,19.5523 19.5524,20 19.0001,20 C18.48725,20 18.0645908,19.613973 18.0068275,19.1166239 L18.0001,19 L18.0001,11 L16.0001,11 L16.0001,18 C16.0001,19.0543909 15.18425,19.9181678 14.1493661,19.9945144 L14.0001,20 L6.0001,20 C4.94573773,20 4.08193483,19.18415 4.00558573,18.1492661 L4.0001,18 L4.0001,11 L3.04041,11 C1.82757,11 1.13405881,9.64716569 1.79056683,8.6699105 L1.86911,8.56296 L4.91899,4.75061 C5.260576,4.323623 5.7601849,4.0572185 6.29960935,4.00820747 L6.48073,4 L17.5195,4 Z M7.0001,11 L6.0001,11 L6.0001,18 L14.0001,18 L14.0001,11 L13.0001,11 L13.0001,15 C13.0001,15.5523 12.5524,16 12.0001,16 L8.0001,16 C7.44782,16 7.0001,15.5523 7.0001,15 L7.0001,11 Z M11.0001,11 L9.0001,11 L9.0001,14 L11.0001,14 L11.0001,11 Z M17.5195,6 L6.48073,6 L4.08073,9 L19.9195,9 L17.5195,6 Z"/></g></svg>

<svg xmlns="http://www.w3.org/2000/svg" width="24" height="24"><g fill="none" fill-rule="evenodd"><path d="M24 0v24H0V0zM12.594 23.258l-.012.002-.071.035-.02.004-.014-.004-.071-.036c-.01-.003-.019 0-.024.006l-.004.01-.017.428.005.02.01.013.104.074.015.004.012-.004.104-.074.012-.016.004-.017-.017-.427c-.002-.01-.009-.017-.016-.018m.264-.113-.014.002-.184.093-.01.01-.003.011.018.43.005.012.008.008.201.092c.012.004.023 0 .029-.008l.004-.014-.034-.614c-.003-.012-.01-.02-.02-.022m-.715.002a.023.023 0 0 0-.027.006l-.006.014-.034.614c0 .012.007.02.017.024l.015-.002.201-.093.01-.008.003-.011.018-.43-.003-.012-.01-.01z"/><path fill="#09244B" d="M17.52 4a2 2 0 0 1 1.442.614l.12.137 3.05 3.812c.757.947.134 2.334-1.04 2.432L20.96 11H20v8a1 1 0 0 1-1.993.117L18 19v-8h-2v7a2 2 0 0 1-1.85 1.995L14 20H6a2 2 0 0 1-1.994-1.85L4 18v-7h-.96c-1.212 0-1.906-1.353-1.25-2.33l.08-.107 3.049-3.812a2 2 0 0 1 1.38-.743L6.482 4zM7 11H6v7h8v-7h-1v4a1 1 0 0 1-1 1H8a1 1 0 0 1-1-1zm4 0H9v3h2zm6.52-5H6.48l-2.4 3h15.84z"/></g></svg>
